assets/img/icon-bitbucket.svg

<svg width="21" height="24" viewBox="0 0 21 24" xmlns="http://www.w3.org/2000/svg"><g fill-rule="nonzero" fill="#fff"><path d="M10.2.5C4.6.5 0 2 0 3.9c0 .5 1.2 7.6 1.7 10.4.2 1.3 3.5 3.1 8.5 3.1s8.2-1.8 8.5-3.1c.5-2.8 1.7-9.9 1.7-10.4C20.3 2 15.8.5 10.2.5zm0 14.6c-1.8 0-3.2-1.4-3.2-3.2 0-1.8 1.4-3.2 3.2-3.2 1.8 0 3.2 1.4 3.2 3.2 0 1.7-1.4 3.2-3.2 3.2zm0-10.2c-3.6 0-6.5-.6-6.5-1.4 0-.8 2.9-1.4 6.5-1.4s6.5.6 6.5 1.4c0 .8-2.9 1.4-6.5 1.4z"/><path d="M17.5 17c-.2 0-.3.1-.3.1s-2.5 2-7 2-7-2-7-2-.2-.1-.3-.1c-.2 0-.4.1-.4.4v.1c.4 2.1.7 3.6.7 3.8.3 1.5 3.3 2.7 6.9 2.7 3.6 0 6.6-1.2 6.9-2.7 0-.2.3-1.7.7-3.8v-.1c.1-.2 0-.4-.2-.4z"/><circle cx="10.2" cy="11.8" r="1.6"/></g></svg>

<svg width="21px" height="24px" viewBox="0 0 21 24" version="1.1" xmlns="http://www.w3.org/2000/svg" xmlns:xlink="http://www.w3.org/1999/xlink">
    <!-- Generator: Sketch 43.1 (39012) - http://www.bohemiancoding.com/sketch -->
    <desc>Created with Sketch.</desc>
    <defs></defs>
    <g id="Page-1" stroke="none" stroke-width="1" fill="none" fill-rule="evenodd">
        <g id="icon-bitbucket" fill-rule="nonzero" fill="#006FA2">
            <path d="M10.2,0.5 C4.6,0.5 0,2 0,3.9 C0,4.4 1.2,11.5 1.7,14.3 C1.9,15.6 5.2,17.4 10.2,17.4 C15.2,17.4 18.4,15.6 18.7,14.3 C19.2,11.5 20.4,4.4 20.4,3.9 C20.3,2 15.8,0.5 10.2,0.5 Z M10.2,15.1 C8.4,15.1 7,13.7 7,11.9 C7,10.1 8.4,8.7 10.2,8.7 C12,8.7 13.4,10.1 13.4,11.9 C13.4,13.6 12,15.1 10.2,15.1 L10.2,15.1 Z M10.2,4.9 C6.6,4.9 3.7,4.3 3.7,3.5 C3.7,2.7 6.6,2.1 10.2,2.1 C13.8,2.1 16.7,2.7 16.7,3.5 C16.7,4.3 13.8,4.9 10.2,4.9 Z" id="Shape"></path>
            <path d="M17.5,17 C17.3,17 17.2,17.1 17.2,17.1 C17.2,17.1 14.7,19.1 10.2,19.1 C5.7,19.1 3.2,17.1 3.2,17.1 C3.2,17.1 3,17 2.9,17 C2.7,17 2.5,17.1 2.5,17.4 L2.5,17.5 C2.9,19.6 3.2,21.1 3.2,21.3 C3.5,22.8 6.5,24 10.1,24 C13.7,24 16.7,22.8 17,21.3 C17,21.1 17.3,19.6 17.7,17.5 L17.7,17.4 C17.8,17.2 17.7,17 17.5,17 Z" id="Shape"></path>
        </g>
    </g>
</svg>
